X:1
T:No. 6 Reverie
T:No. 6 Rêverie
T:From "Poetic Tone Pictures", Op. 85
T:Anton Dvořák
C:Anton Dvorak
%%score { ( 1 4 5 ) | ( 2 3 ) }
L:1/8
Q:1/4=92
M:2/4
K:B
V:1 treble nm="Piano" snm="Pno."
V:4 treble 
V:5 treble 
V:2 bass 
V:3 bass 
V:1
!p!"^Andante" A2{/c} B>A | G2 B>d | f3 e | d4 | A2!>(!{/c} B>A | G2 B>d!>)! |!pp! d3 c | %7
 B4[Q:1/4=80] |[Q:1/4=92] c2{/e} =d>c |!<(! B2 =d>f!<)! |!mp!!>(! =a3 =g!>)! |!pp! f4 | %12
!p!!>(! e2 f>e!>)! |!pp! =g3 B |!pp! =d3 =c | B4[Q:1/4=80] |[Q:1/4=92] ^c2!<(!{/e} ^d>c | %17
 B2 ^d>f!<)! | !^!^a3!mp! g | f4 | e2{/g} f>e |"_dim." g3 B |!pp! A2 ^^G/A/B/A/ | d4[Q:1/4=72] | %24
[Q:1/4=92] A2{/c} B>A | G2 Bd | f7/2 e/ | d4 | A2!<(!{/c} B>A | G2[Q:1/4=80] (3GAB!<)! | %30
!mp!!>(! d3 c!>)! |!p! B4[Q:1/4=72] |[Q:1/4=92]!pp! d3 c | BFBd |!<(! f3 e | d3 d!<)! |!f! c'3 b | %37
 ag!mf!!>(!fd | c^B/4c/4d/4c/4!>)!!p!{/^e} d>c |[Q:1/4=72]"^ritard" c f2 F | %40
[Q:1/4=92]"^in tempo" c2 d>c | B3 B | f3 e | d3 c |!<(! [Gcg]2 !arpeggio![^Ac^a]>[Gg]!<)! | %45
!f! !arpeggio!!>![d^^fd'][cgc'] !arpeggio!!>![E^^Ge][DAd] |!>(! d2 cB | %47
[Q:1/4=80] A^^G/4A/4B/4A/4[Q:1/4=72] f>^e!>)! |!p! [Fd]4 |!pp![Q:1/4=92] c2 d>c | !>!B3 !>!d | %51
"_cresc." !>!f3 !>!e | !>!d3 !>!d | !>!g2 !>!a>!>!g | %54
!f! !arpeggio!!>![d^^fd']!<(![cgc'] !arpeggio!!>![E^^Ge][DAd]!<)! | %55
!ff! !arpeggio![cdc'][Bdb] !arpeggio![^^F^^c^^f]!arpeggio![Gcg] | [Bdb][Bd] ^f>e | %57
!f![Q:1/4=80] !arpeggio![CAd]4[Q:1/4=60][Q:1/4=72]"^ritard" | %58
[Q:1/4=72] z/!pp!!8va(! [a'd'']3/2!8va)! z/ [ad']3/2 | %59
 z/!ppp! [Ad][A,C]/-"^lunga\ncorona\n" !fermata![A,C]2 |!pp![Q:1/4=92] A2{/c} B>A | G2!<(! B>d | %62
 f3 e!<)! |!p!!>(! d4!>)! |!pp! A2{/c} B>A | G2 B>d | d3 c | B4 | c2{/e} =d>c | %69
!<(! B2- (5:4:5B/!>!c/!>!=d/!>!e/!>!f/!<)! |!f!!>(! =a3 =g | f4!>)! |!p! e2 f>e |!>(! =g3 B!>)! | %74
!pp! =d3 =c | B4[Q:1/4=72] |!pp![Q:1/4=92] ^c2{/e} ^d>c |!<(! B2 ^d>f!<)! |!ff! !>!^a3 ^g |!f! f4 | %80
!p! e2 Pf>e | g3 B |"_dim." B2 A/B/{/c}B/z/4A/4 |{/G} d4[Q:1/4=80] |!pp![Q:1/4=92] A2{/c} ^B>A | %85
!<(! G2- G/A/^B/d/!<)! |!<(! ^^f3 ^e!<)! |!mf!!>(! !arpeggio![G^Bd]4!>)! | %88
!p! ^A2!>(!{/c} =B>A!>)! |!pp!!<(! G2- (3GAB!<)! |!f! d3 c |[Q:1/4=86] [FB]3 z | %92
!p![Q:1/4=80] D3 C |!pp![Q:1/4=74] [F,B,]3 z |[K:bass]!pp![Q:1/4=68] =D,3!>(! C, | %95
[Q:1/4=62] [B,,F,]4 |[K:treble][Q:1/4=56] [DBf]4!>)! |!ppp! !fermata![dbf']4 |] %98
V:2
!pp!!ped! D,, z/ [^^F,CD]/ [F,CE]!ped-up![F,CD] |!ped! G,, z/ [G,B,D]/ [G,B,E]!ped-up![G,B,D] | %2
!ped! F,, z/[K:treble] [A,F]/ [CA]!ped-up![A,G] | %3
[K:bass]!ped! B,, z/[K:treble] [B,DF]/ [B,DG][B,DF]!ped-up! | %4
[K:bass]!ped! D,, z/ [D,^^F,C]/!>(! [E,F,C]!ped-up![D,F,C] | %5
!ped! G,, z/ [G,B,D]/ [G,B,E]!ped-up![G,B,D]!>)! |!pp!!ped! !>!F,, z/ [F,A,]/ [A,F]!ped-up![A,E] | %7
!ped! !>!B,, z/ [F,B,D]/ [G,B,E]!ped-up![F,B,D] |[K:treble]!ped! z3/2 [E=G]/ [FG]!ped-up![EG] | %9
!ped!!<(! z3/2 [=DF]/ [D=G]!ped-up![DF]!<)! |!p!!ped!!>(! E, z/ [B,E=G]/ [CEG]!ped-up![B,EG]!>)! | %11
[K:bass]!pp!!ped! !>!B,, z/ [F,B,=D]/ [F,B,C]!ped-up![F,B,D] | %12
!pp!!ped! =C, z/!>(! [=G,=A,]/ [A,E]!ped-up![G,A,]!>)! | %13
!pp!!ped! =D, z/[K:treble] [B,=D=G]/ [=CD=A]!ped-up![B,DG] | %14
[K:bass]!ped! !>!=D,, z/ [F,=C]/ [C=D][F,=A,]!ped-up! | %15
!ped! !>!=G,, z/ [=G,B,=D]/ [G,B,E][G,B,D]!ped-up! | %16
!ped! !>!^A,, z/[K:treble] [^A,E]/!<(! [E^^F]!ped-up![A,E] | %17
[K:bass]!ped! !>!B,, z/[K:treble] [B,^DF]/ [B,D^^F][B,DG]!<)!!ped-up! | %18
[K:bass]!mp!!ped! !>!E,, z/ [E,G,^B,]/ [E,G,C][E,G,^^C]!ped-up! | %19
!ped! B,, z/!p! [F,B,D]/ [G,B,E][F,B,D]!ped-up! |!ped! [C,,C,] z/ [G,A,]/ [A,E]!ped-up![G,A,] | %21
!>(!!ped! [D,,D,] z/ [B,DG]/ [B,EG][B,DG]!>)!!ped-up! | %22
!pp!!ped! !>!E,, z/ [E,G,]/ [G,^^C][E,G,]!ped-up! |!ped! !>!D,, z/ [^^F,A,]/ [A,D][F,A,]!ped-up! | %24
!ped! ^^F, z/ [CD]/ [CE][CD]!ped-up! |!ped! G, z/ [B,D]/ [B,E][B,D]!ped-up! | %26
[K:treble]!ped! A, z/ F/ [Fd][Fc]!ped-up! |!ped! B, z/ [FB]/ [GB][FB]!ped-up! | %28
[K:bass]!ped! D,, z/ [D,^^F,C]/!<(! [E,F,C][D,F,C]!ped-up! | %29
!ped! G,, z/ [G,B,D]/ [G,B,E]!ped-up![G,B,D]!<)! | %30
!p!!ped!!>(! F,, z/ [F,A,]/ [A,F][F,E]!ped-up!!>)! | %31
!pp!!ped! B,, z/ [F,B,D]/ [G,B,E]!ped-up!!fermata![F,B,D] |[K:treble]!pp! [B,E]4 | [B,D]4 | %34
!<(! F2 ^^F2 | [B,G]4!<)! |!mf!!ped! [G,=D^E]4!ped-up! | %37
!ped! !arpeggio![A,CF]2!ped-up!!mp!!ped! !arpeggio![^B,D]2!ped-up! | %38
!ped! [CF]2!ped-up!!pp!!ped! [C^EG]2!ped-up! |!ped! F4!ped-up! |!ped! [E=G]4!ped-up! | %41
!ped! [DF]4!ped-up! |!ped! [CF]4!ped-up! |!ped! [^B,F]4!ped-up! |!ped! [=B,C^E]4!ped-up! | %45
!ped! ^^FG!ped-up![K:bass]!ped! !arpeggio![^^F,C]2!ped-up! | %46
!ped! !arpeggio![G,DG]2!ped-up!!ped! !arpeggio![=A,D]2!ped-up! | %47
!ped! [^A,D]2!ped-up!!ped! [A,^^C]2!ped-up! |[K:treble]!ped! [DA]4!ped-up! | %49
[K:bass]!ped! E,/=G,/A,/[I:staff -1]=G/[I:staff +1] x2!ped-up! | %50
!ped! D,/F,/B,/[I:staff -1]D/ F[I:staff +1] z!ped-up! | %51
!ped! C,/F,/A,/[I:staff -1]E/ A[I:staff +1] z!ped-up! | %52
!ped! ^B,,/F,/=A,/[I:staff -1]D/F/=A/[I:staff +1] z!ped-up! | %53
!ped! (6:4:6=B,,/^E,/G,/C/[I:staff -1]^E/G/ c[I:staff +1] z!ped-up! | %54
!mf!!ped! (6:4:6A,,/=E,/A,/!<(!C/E/G/!ped-up!!ped! (6:4:6^^F,,/C,/E,/^^F,/A,/C/!<)!!ped-up! | %55
!f!!ped! (6:4:6G,,/D,/G,/B,/D/G/!ped-up!!ped! (6:4:6^E,,/A,,/^^C,/^E,/A,/^^C/!ped-up! | %56
!ped! (6:4:6F,,/B,,/D,/F,/B,/D/!ped-up!!ped! (6:4:6F,,/C,/E,/A,/C/ z/!ped-up! | %57
!ped! ^^F,,/!>(!D,/A,/D/[K:treble] a/d'/!8va(![I:staff -1]a'/!>)!!pp!!fermata!d''/!ped-up!!8va)! | %58
[I:staff +1] z/!ped! [^^fc']3/2 z/ [^^Fc]3/2!ped-up! | %59
[K:bass] z/ [^^F,C][G,,E,]/- !fermata![G,,E,]2 |!pp!!ped! D,, z/ [^^F,CD]/ [F,CE]!ped-up![F,CD] | %61
!ped! G,, z/ [G,B,D]/ [G,B,E]!ped-up![G,B,D] |!ped! F,, z/ [A,C]/!ped-up! [FA][A,G] | %63
!ped! B,, z/[K:treble]!pp! [B,D^^F]/ [B,DG][B,D^F]!ped-up! | %64
[K:bass]!pp!!ped! D,, z/ [D,^^F,C]/[E,F,C]!ped-up![D,F,C] | %65
!ped! G,, z/ [^^C,G,B,]/[C,G,B,]!ped-up![C,G,B,] |!pp!!ped! !>!F,, z/ [F,A,]/F!ped-up![A,E] | %67
!ped! !>!B,, z/ [^E,B,^^C]/[=G,B,=E]!ped-up![F,B,D] | !>!A,, z/[K:treble] [A,E=G]/[A,FG][A,EG] | %69
[K:bass]!ped!!<(! !>!B,, z/[K:treble] [B,=DF]/!ped-up![B,D=G][B,DF]!<)! | %70
[K:bass]!mf!!ped! !>!E,, z/!>(! [=G,B,E]/[G,CE][G,B,E]!ped-up! | %71
!ped! !>!B,, z/ [F,B,=D]/!ped-up![^E,B,C][F,B,D]!>)! | %72
!pp!!ped! !>!=C, z/ [=G,=A,E]/!ped-up![G,A,^D][G,A,E] | %73
!ped!!>(! !>!=D, z/[K:treble] [B,=D=G]/!ped-up![B,D=A][B,DG]!>)! | %74
[K:bass]!pp!!ped! !>!=D,, z/ [F,=C]/[C=D]!ped-up![F,=A,] | %75
!ped! !>!=G,, z/"_dim." [=G,B,=D]/[G,B,E]!ped-up!!ppp![G,B,D] | %76
!pp!!ped! !>!^A,, z/[K:treble] [A,CE]/[A,CF]!ped-up![A,C^^F] | %77
[K:bass]!ped! !>!B,, z/[K:treble]!<(! [B,DF]/ [B,D^^F]!ped-up![B,DG]!<)! | %78
[K:bass]!f!!ped! !>!E,, z/ [E,G,^B,]/ !>![E,G,C]!ped-up!!>![E,G,^^C] | %79
!mf!!ped! !>!B,,, z/!>(! [F,B,D]/[G,B,E]!ped-up![F,B,D]!>)! | %80
!ped! !>!C,, z/ [G,A,E]/[^^F,A,E]!ped-up![G,A,E] |!ped! !>!D,, z/ [G,B,D]/[G,B,E]!ped-up![G,B,D] | %82
!ped! !>!D,, z/ [D,^^F,]/[F,C]!ped-up![D,F,] |!ped! !>!G,, z/ [G,^B,]/[B,D]!ped-up![G,B,] | %84
!pp! [G,C]4 |!<(! [G,^B,]4!<)! | [G,CD]4 |!ped! !arpeggio![G,^B,D]4!ped-up! | ^^F,4 | [^E,^^C]4 | %90
"^morendo" =G!>(!F^E=E | ^D=DCB,!>)! | =G,!>(!F,^E,=E,!>)! | ^D,=D,C,B,, | %94
"^morendo" [E,,,B,,,E,,]4 |!ped! !arpeggio![B,,,F,,^D,]4 | [B,,F,B,]4 | %97
[K:treble] !fermata![B,FB]4!ped-up! |] %98
V:3
 x4 | x4 | x3/2[K:treble] x5/2 |[K:bass] x3/2[K:treble] x5/2 |[K:bass] x4 | x4 | x4 | x4 | %8
[K:treble] A,4 | B,4 | x4 |[K:bass] x4 | x4 | x3/2[K:treble] x5/2 |[K:bass] x4 | x4 | %16
 x3/2[K:treble] x5/2 |[K:bass] x3/2[K:treble] x5/2 |[K:bass] x4 | x4 | x4 | x4 | x4 | x4 | x4 | %25
 x4 |[K:treble] x4 | x4 |[K:bass] x4 | x4 | x4 | x4 |[K:treble] x4 | x4 | x4 | x4 | x4 | x4 | x4 | %39
 x4 | x4 | x4 | x4 | x4 | x4 | !arpeggio![A,=E]2[K:bass] x2 | x4 | x4 |[K:treble] x4 | %49
[K:bass] E,4 | D,4 | C,4 | ^B,,4 | B,,4 | x4 | x4 | x4 | x2[K:treble] x!8va(! x!8va)! | x4 | %59
[K:bass] x4 | x4 | x4 | x4 | x3/2[K:treble] x5/2 |[K:bass] x4 | x4 | x4 | x4 | %68
 x3/2[K:treble] x5/2 |[K:bass] x3/2[K:treble] x5/2 |[K:bass] x4 | x4 | x4 | x3/2[K:treble] x5/2 | %74
[K:bass] x4 | x4 | x3/2[K:treble] x5/2 |[K:bass] x3/2[K:treble] x5/2 |[K:bass] x4 | x4 | x4 | x4 | %82
 x4 | x4 | x4 | x4 | x4 | x4 | E,4 | x4 | F,4 | B,3 z | B,,4- | B,,3 z | x4 | x4 | x4 | %97
[K:treble] x4 |] %98
V:4
 x4 | x4 | x4 | x4 | x4 | x4 | x4 | x4 | x4 | x4 | x4 | x4 | x4 | x4 | x4 | x4 | x4 | x4 | x4 | %19
 x4 | x4 | x4 | x4 | x4 | x4 | x4 | x4 | x4 | x4 | x4 | x4 | x4 | [=GA]4 | F4 | [Ac]4 | B4 | %36
 [B^e]4 | !arpeggio![Ac]2 !arpeggio![FA]2 | A2 =B2- | B2 A2 | A4 | x4 | A4 | =A4 | x4 | x4 | %46
 !arpeggio![cc'][Bb] !arpeggio!^EF | x4 | x4 | x2 A z | x4 | x4 | x4 | x4 | x4 | x4 | x4 | x2 x2 | %58
 x/!8va(! x3/2!8va)! x2 | x4 | x4 | x4 | x4 | x4 | x4 | x4 | x4 | x4 | x4 | x4 | x4 | x4 | x4 | %73
 x4 | x4 | x4 | x4 | x4 | x4 | x4 | x4 | x4 | x4 | x4 | E4 | D4 | ^^F4 | x4 | C4 | =B,4 | A4 | x4 | %92
 A,4 | x4 |[K:bass] [=G,,^A,,]4 | x4 |[K:treble] x4 | x4 |] %98
V:5
 x4 | x4 | x4 | x4 | x4 | x4 | x4 | x4 | x4 | x4 | x4 | x4 | x4 | x4 | x4 | x4 | x4 | x4 | x4 | %19
 x4 | x4 | x4 | x4 | x4 | x4 | x4 | x4 | x4 | x4 | x4 | x4 | x4 | x4 | x4 | x4 | x4 | x4 | x4 | %38
 x4 | c4 | x4 | x4 | x4 | x4 | x4 | x4 | x4 | x4 | x4 | x4 | x4 | x4 | x4 | x4 | x4 | x4 | x4 | %57
 x4 | x/!8va(! x3/2!8va)! x2 | x4 | x4 | x4 | x4 | x4 | x4 | x4 | x4 | x4 | x4 | x4 | x4 | x4 | %72
 x4 | x4 | x4 | x4 | x4 | x4 | x4 | x4 | x4 | x4 | x4 | x4 | x4 | x4 | A2!mp! ^^A2 | x4 | x4 | x4 | %90
 x4 | x4 | x4 | x4 |[K:bass] x4 | x4 |[K:treble] x4 | x4 |] %98

